X:92
T:Castleblaney Piper, The
T:Hare in the Corn, The
R:jig
C:Ed Reavy (1898-1988)
Z:id:hn-jig-92
M:6/8
K:D
FDF ABc|dAG FED|GBG FGA|BGE EAG|FDF ABc|dAG FED|dfa gec|1 dAF DAG:|2 dAF D2a||
|:afd gec|dAG FED|GBG FGA|BGE E2a|afd gec|dAG FED|dfa gec|1 dAF D2a:|2 dAF DAG||

